packages/ffe-icons/icons/filled/md/align_horizontal_center.svg

<svg xmlns="http://www.w3.org/2000/svg" height="24" viewBox="0 -960 960 960" width="24"><path d="M450.001-130.001v-163.846H310.385q-20.769 0-35.576-14.808-14.808-14.807-14.808-35.576t14.808-35.576q14.807-14.808 35.576-14.808h139.616v-170.77H190.385q-20.769 0-35.576-14.808-14.808-14.807-14.808-35.576t14.808-35.576q14.807-14.808 35.576-14.808h259.616v-163.846q0-12.75 8.628-21.375 8.629-8.625 21.384-8.625 12.756 0 21.371 8.625 8.615 8.625 8.615 21.375v163.846h259.616q20.769 0 35.576 14.808 14.808 14.807 14.808 35.576t-14.808 35.576q-14.807 14.808-35.576 14.808H509.999v170.77h139.616q20.769 0 35.576 14.808 14.808 14.807 14.808 35.576t-14.808 35.576q-14.807 14.808-35.576 14.808H509.999v163.846q0 12.75-8.628 21.375-8.629 8.625-21.384 8.625-12.756 0-21.371-8.625-8.615-8.625-8.615-21.375Z"/></svg>

<svg xmlns="http://www.w3.org/2000/svg" height="24" viewBox="0 -960 960 960" width="24"><path d="M450-130v-163.85H310.39q-20.77 0-35.58-14.8Q260-323.46 260-344.23q0-20.77 14.81-35.58 14.81-14.8 35.58-14.8H450v-170.78H190.39q-20.77 0-35.58-14.8Q140-595 140-615.77q0-20.77 14.81-35.58 14.81-14.8 35.58-14.8H450V-830q0-12.75 8.63-21.37 8.63-8.63 21.38-8.63 12.76 0 21.37 8.63Q510-842.75 510-830v163.85h259.61q20.77 0 35.58 14.8Q820-636.54 820-615.77q0 20.77-14.81 35.58-14.81 14.8-35.58 14.8H510v170.78h139.61q20.77 0 35.58 14.8Q700-365 700-344.23q0 20.77-14.81 35.58-14.81 14.8-35.58 14.8H510V-130q0 12.75-8.63 21.37-8.63 8.63-21.38 8.63-12.76 0-21.37-8.63Q450-117.25 450-130Z"/></svg>
